icon-themes/sifr_svg/cmd/sc_beziermove.svg

<svg viewBox="0 0 16 16" xmlns="http://www.w3.org/2000/svg"><g fill="#555753"><path d="m13 1c0 2.7614237-2.238576 6-5 6h1v1.8964844c3.390632-.6332544 6-4.3711936 6-7.8964844zm-6 6.1035156c-3.3906322.6332544-6 4.3711934-6 7.8964844h2c0-2.761424 2.238576-6 5-6h-1z" opacity=".35"/><path d="m10 6v4h-4v-4zm-1 1h-2v2h2z"/><path d="m11 9v1c0 .256892.12983.528462.3125.71875l.371094.28125h-2.683594v2h2.683594l-.371094.28125c-.18267.190301-.3125.494728-.3125.71875v1h.412109.587891c.30945 0 .55232-.0903.75-.28125 1.016078-.769594 1.524849-1.321099 2.25-1.939453v-1.615234l-2.25-1.882813c-.19768-.19095-.44055-.28125-.75-.28125h-.587891z"/></g></svg>

<svg xmlns="http://www.w3.org/2000/svg" viewBox="0 0 16 16">
  <path
     style="opacity:0.35;fill:#555753"
     d="M 13 1 C 13 3.7614237 10.761424 7 8 7 L 9 7 L 9 8.8964844 C 12.390632 8.26323 15 4.5252908 15 1 L 13 1 z M 7 7.1035156 C 3.6093678 7.73677 1 11.474709 1 15 L 3 15 C 3 12.238576 5.238576 9 8 9 L 7 9 L 7 7.1035156 z "
     />
  <path
     style="fill:#555753"
     d="m 10,6 v 4 H 6 V 6 Z M 9,7 H 7 v 2 h 2 z"
     />
  <path
     style="fill:#555753"
     d="m 11,9 v 1 c 0,0.256892 0.12983,0.528462 0.3125,0.71875 L 11.683594,11 H 9 v 2 h 2.683594 L 11.3125,13.28125 C 11.12983,13.471551 11,13.775978 11,14 v 1 H 11.412109 12 c 0.30945,0 0.55232,-0.0903 0.75,-0.28125 1.016078,-0.769594 1.524849,-1.321099 2.25,-1.939453 V 11.164063 L 12.75,9.28125 C 12.55232,9.0903 12.30945,9 12,9 h -0.587891 z"
     />
</svg>
